assets/svg/Unload.svg

<svg width="24" height="24" viewBox="0 0 24 24" fill="none" xmlns="http://www.w3.org/2000/svg">
<path fill-rule="evenodd" clip-rule="evenodd" d="M3.28416 4H2V2H3.28416C4.76488 2 6.02412 3.08033 6.24928 4.54383L7.72747 14.1521C7.80252 14.6399 8.22227 15 8.71584 15H10V5H20V15H22V17H8.71584C7.23513 17 5.97588 15.9197 5.75072 14.4562L4.27253 4.84794C4.19748 4.36011 3.77773 4 3.28416 4ZM18 15H12V7H14V9H16V7H18V15Z" fill="#081B31"/>
<path d="M9 22C8.44995 22 7.97937 21.8047 7.58801 21.4131C7.19604 21.0215 7 20.5498 7 20C7 19.4502 7.19604 18.9785 7.58801 18.5869C7.97937 18.1953 8.44995 18 9 18C9.55005 18 10.0206 18.1953 10.412 18.5869C10.5809 18.7559 10.7134 18.9395 10.8096 19.1377C10.9365 19.3994 11 19.6875 11 20C11 20.5498 10.804 21.0215 10.412 21.4131C10.0206 21.8047 9.55005 22 9 22Z" fill="#081B31"/>
<path d="M18 22C17.45 22 16.9794 21.8047 16.588 21.4131C16.408 21.2334 16.2693 21.0361 16.1719 20.8223C16.0573 20.5713 16 20.2969 16 20C16 19.4502 16.196 18.9785 16.588 18.5869C16.9794 18.1953 17.45 18 18 18C18.55 18 19.021 18.1953 19.413 18.5869C19.8043 18.9785 20 19.4502 20 20C20 20.5498 19.8043 21.0215 19.413 21.4131C19.021 21.8047 18.55 22 18 22Z" fill="#081B31"/>
</svg>

<svg width="24" height="24" fill="none" xmlns="http://www.w3.org/2000/svg">
    <path fill-rule="evenodd" clip-rule="evenodd" d="M3.284 4H2V2h1.284A3 3 0 0 1 6.25 4.544l1.478 9.608a1 1 0 0 0 .989.848H10V5h10v10h2v2H8.716a3 3 0 0 1-2.965-2.544L4.273 4.848A1 1 0 0 0 3.284 4ZM18 15h-6V7h2v2h2V7h2v8Z" fill="#081B31"/>
    <path d="M9 22c-.55 0-1.02-.195-1.412-.587A1.927 1.927 0 0 1 7 20c0-.55.196-1.021.588-1.413A1.924 1.924 0 0 1 9 18c.55 0 1.02.195 1.412.587.169.169.301.352.398.55.127.262.19.55.19.863 0 .55-.196 1.021-.588 1.413A1.924 1.924 0 0 1 9 22ZM18 22c-.55 0-1.02-.195-1.412-.587a2.012 2.012 0 0 1-.416-.59A1.957 1.957 0 0 1 16 20c0-.55.196-1.021.588-1.413A1.924 1.924 0 0 1 18 18c.55 0 1.021.195 1.413.587.391.392.587.863.587 1.413s-.196 1.021-.587 1.413A1.927 1.927 0 0 1 18 22Z" fill="#081B31"/>
</svg>
